64x64/apps/datovka.svg

<svg xmlns="http://www.w3.org/2000/svg" width="64" height="64" version="1">
 <rect style="opacity:0.2" width="56" height="56" x="4" y="5" rx="16.8" ry="16.8"/>
 <rect style="fill:#00539b" width="56" height="56" x="4" y="4" rx="16.8" ry="16.8"/>
 <path style="opacity:0.2" d="M 22.713315,16 20.4,29 H 30.881 L 31.775,23.791667 38.15,33 28.941667,41.5 29.622331,37 H 19.080338 L 16.9,50 H 28.164161 C 39.480328,49.479185 46.44419,42.900376 47.828711,33.832845 49.04918,25.839735 45.763368,16.921704 33.128028,16 Z"/>
 <path style="fill:#ffcb05" d="M 22.713315,15 20.4,28 H 30.881 L 31.775,22.791667 38.15,32 28.941667,40.5 29.622331,36 H 19.080338 L 16.9,49 H 28.164161 C 39.480328,48.479185 46.44419,41.900376 47.828711,32.832845 49.04918,24.839735 45.763368,15.921704 33.128028,15 Z"/>
 <path style="fill:#f4f4f7;opacity:0.1" d="M 20.800781 4 C 11.493582 4 4 11.493582 4 20.800781 L 4 21.800781 C 4 12.493582 11.493582 5 20.800781 5 L 43.199219 5 C 52.506418 5 60 12.493582 60 21.800781 L 60 20.800781 C 60 11.493582 52.506418 4 43.199219 4 L 20.800781 4 z"/>
 <path style="opacity:0.2;fill:#f4f4f7" d="M 22.712891 15 L 20.400391 28 L 20.578125 28 L 22.712891 16 L 33.128906 16 C 43.915132 16.786818 47.874268 23.401614 48.046875 30.292969 C 48.243969 23.053749 44.436876 15.824877 33.128906 15 L 22.712891 15 z M 37.728516 32.390625 L 29.117188 40.337891 L 28.941406 41.5 L 38.150391 33 L 37.728516 32.390625 z M 19.080078 36 L 16.900391 49 L 17.068359 49 L 19.080078 37 L 29.470703 37 L 29.623047 36 L 19.080078 36 z"/>
</svg>

<svg xmlns="http://www.w3.org/2000/svg" width="64" height="64" version="1"><rect style="opacity:.2" width="56" height="56" x="4" y="5" rx="16.8" ry="16.8"/><rect style="fill:#00539b" width="56" height="56" x="4" y="4" rx="16.8" ry="16.8"/><path style="opacity:.2" d="M22.713 16 20.4 29h10.481l.894-5.208L38.15 33l-9.208 8.5.68-4.5H19.08L16.9 50h11.264c11.316-.52 18.28-7.1 19.665-16.167C49.049 25.84 45.763 16.922 33.128 16z"/><path style="fill:#ffcb05" d="M22.713 15 20.4 28h10.481l.894-5.208L38.15 32l-9.208 8.5.68-4.5H19.08L16.9 49h11.264c11.316-.52 18.28-7.1 19.665-16.167C49.049 24.84 45.763 15.922 33.128 15z"/><path style="fill:#f4f4f7;opacity:.1" d="M20.8 4C11.495 4 4 11.494 4 20.8v1C4 12.495 11.494 5 20.8 5h22.4C52.505 5 60 12.494 60 21.8v-1C60 11.495 52.506 4 43.2 4H20.8z"/><path style="opacity:.2;fill:#f4f4f7" d="M22.713 15 20.4 28h.178l2.135-12h10.416c10.786.787 14.745 7.402 14.918 14.293.197-7.24-3.61-14.468-14.918-15.293H22.713zm15.016 17.39-8.612 7.948-.176 1.162 9.21-8.5-.422-.61zM19.08 36 16.9 49h.168l2.012-12h10.39l.153-1H19.08z"/></svg>
